src/Icon/svgs/StoreOutline.svg

<svg width="24" height="24" viewBox="0 0 24 24" fill="none" xmlns="http://www.w3.org/2000/svg">
<path fill-rule="evenodd" clip-rule="evenodd" d="M5 2C4.59997 2 4.23843 2.2384 4.08085 2.60608L1 9.79474V10C1 11.3962 1.81753 12.6015 3 13.1632V21C3 21.5523 3.44772 22 4 22H20C20.5523 22 21 21.5523 21 21V13.1632C22.1825 12.6015 23 11.3962 23 10V9.79474L19.9191 2.60608C19.7616 2.2384 19.4 2 19 2H5ZM19 13.4646C18.2212 13.3532 17.5251 12.9854 17 12.4495C16.3647 13.0978 15.4793 13.5 14.5 13.5C13.5207 13.5 12.6353 13.0978 12 12.4495C11.3647 13.0978 10.4793 13.5 9.5 13.5C8.52065 13.5 7.63526 13.0978 7 12.4495C6.47486 12.9854 5.77878 13.3532 5 13.4646V20H19V13.4646ZM8 10H6C6 10.8284 5.32843 11.5 4.5 11.5C3.73257 11.5 3.09975 10.9237 3.01072 10.1802L5.6594 4H18.3406L20.9893 10.1802C20.9002 10.9237 20.2674 11.5 19.5 11.5C18.6716 11.5 18 10.8284 18 10H16C16 10.8284 15.3284 11.5 14.5 11.5C13.6716 11.5 13 10.8284 13 10H11C11 10.8284 10.3284 11.5 9.5 11.5C8.67157 11.5 8 10.8284 8 10Z" fill="#1B1C1D"/>
</svg>

<svg xmlns="http://www.w3.org/2000/svg" width="24" height="24" fill="none"  xmlns:v="https://vecta.io/nano"><path fill-rule="evenodd" d="M5 2a1 1 0 0 0-.919.606L1 9.795V10a3.5 3.5 0 0 0 2 3.163V21a1 1 0 0 0 1 1h16a1 1 0 0 0 1-1v-7.837A3.5 3.5 0 0 0 23 10v-.205l-3.081-7.189A1 1 0 0 0 19 2H5zm14 11.465a3.49 3.49 0 0 1-2-1.015 3.49 3.49 0 0 1-5 0 3.49 3.49 0 0 1-5 0 3.49 3.49 0 0 1-2 1.015V20h14v-6.535zM8 10H6a1.5 1.5 0 0 1-2.989.18L5.659 4h12.681l2.649 6.18A1.5 1.5 0 0 1 18 10h-2a1.5 1.5 0 1 1-3 0h-2a1.5 1.5 0 1 1-3 0z" fill="#1b1c1d"/></svg>
